icons/Business/bar-chart-fill.svg

<svg xmlns="http://www.w3.org/2000/svg" viewBox="0 0 24 24">
    <g>
        <path fill="none" d="M0 0h24v24H0z"/>
        <path d="M3 12h4v9H3v-9zm14-4h4v13h-4V8zm-7-6h4v19h-4V2z"/>
    </g>
</svg>

<svg viewBox="0 0 24 24" xmlns="http://www.w3.org/2000/svg"><path d="M3 12H7V21H3V12ZM17 8H21V21H17V8ZM10 2H14V21H10V2Z"/></svg>
